X:1
T:Che fai tu
T:André Vierendeels
T:Source : Melody from "Corona di Sacre canzoni o Laude spirirtuali" (Tenor voice) Firenze---Eredi Francesco Orofri---1689. Editor : André Vierendeels (05/12/17). Notes : Original clef : C4, other voices supplied editorially Editorial accidentals above the staff Music compiled by Matteo Coferati
T:Che fai tu
T:©
T:©
C:André Vierendeels
Z:©
%%score [ 1 2 3 ]
L:1/8
Q:1/4=101
M:4/4
K:C
V:1 treble nm="Soprano" snm="S"
V:2 treble nm="Alto" snm="A"
V:3 treble-8 nm="Tenor" snm="T"
V:1
"^1)" B4 B4 | G2 A2 B2 c2 | F4 A3 A | BB A2 G2 G2 | A2 G2 A2 ^G2 | A2 A2 B4 :: B4 B4 | %7
w: Che fai|tu in quest' a-|bis- so, che|fai tu'in quest' a- bis-|so, stolt' a vil|pec- ca- tor|le- va-|
w: Pian- gi,|pian- gi tu- e|col- pe, pian-|gi, pian- gi tue col-|pe, pian- gi la|not- t'e'l di;|le- va-|
 G2 A2 B2 c2 | A4 A3 A | B2 A4 A2 | G2 G2 A2 A2 | ^G2 A2 !fermata!A4 :| %12
w: ti dal pec- *|ca- to, le-|va- ti pec-|ca- to'ed a- ma'l|buon Ie- su.|
w: ti dal pec- *|ca- to, le-|va- ti pec-|ca- to'ed a- ma'il|buon Ie- su.|
V:2
"^2)""^1)" G4 G4 | E2 A2 G2 A2 | A4 F3 F | GG F2 E2 E2 | E2 D2 F2 E2 | E2 F2 D4 :: G4 G4 | %7
w: Che fai|tu in quest' a-|bis- so, che|fai tu'in quest a- bis-|so, stolt' a vil|pec- ca- tor,|le- va-|
w: Al- za|la men- te al|ie- lo, al-|za la men- te'al Cie-|lo, la- scia'i pen-|sier ter- ren,|le- va-|
 E2 A2 G2 A2 | ^F4 D3 =F | G2 F2 E2 F2 | E2 D2 F2 E2 | E2 E2 !fermata!^C4 :| %12
w: ti dal pec- *|ca- to, le-|va- ti pec- ca-|to, ed a- ma'il|buon Ie- .su.|
w: ti dal pec- *|ca- to, le-|va- ti pec- ca-|to, ed a- ma'il|buon Ie- su|
V:3
"^3)""^1)""^4)""^5)" e4 e4 | e2 e2 e2 e2 | d4 d3 d | ddde c4 | c2 B2 c2 B2 | c2 d2 B4 :: e4 e4- | %7
w: Che fai|tu in quest' a-|bis- so, che|fai tu'in quest' a- bis-|so, stolt' e vil|pec- ca- tor,|le- va-|
w: Do- na,|do- na pen- ti-|* to, do-|na, do- na pen- ti-|to'a Dio l'a- ni-|ma'e il cuor,|le- va-|
w: Se non|vuo- i che'l tuo|duo- lo, se|non vuoi ch'el tuo duo-|lo, du- ri'un e-|ter- ni- ta,|le- va-|
 e2 e2 e2 e2 | d4 d3 d | ddde c4 | c2 B2 d2 c2 | B3 A !fermata!A4 :| %12
w: * ti dal pec-|ca- to, le-|va- ti dal pec- ca-|to, ed a- ma'il|buon Ie- su.|
w: * ti dal pec-|ca- to, le-|va- ti dal pec- ca-|to, ed a- ma'il|buon Ie- su.|
w: * ti dal pec-|ca- to, le-|va- ti dal pec- ca-|to, ed a- ma'il|buon Ie- su.|

